X:26
T:Yellow Tinker, The
C:Traditional
R:reel
M:C|
K:GMix
DG (3GGG DEFE | DG (3GGG dBcA | (3GGG GF DEFG |[1 cAFA c2BA :|[2 cAFA c2Bc |
dG (3GGG GABc | dggd ^fgaf | gd (3GGG BcdB | cAFA c2Bc |
dG (3GGG GABc | dggd ^fgaf | g2ae ^fgae | ^fgag fdcA |
d2BG BdBG | BdBG c2Bc | (3ddd BG Bcde | fecA FABc |
d2BG BdBG | BdBG c2Bc | (3ddd de (3fff fe | cAFA G2GF |]

